public/avatar/hat/318.svg

<svg xmlns:xlink="http://www.w3.org/1999/xlink" height="92.9" width="100.7" xmlns="http://www.w3.org/2000/svg"><use height="40.3" transform="translate(17.75 43.3)" width="43.55" xlink:href="#a"/><defs><g id="a" fill-rule="evenodd"><path d="M-4.1-6.05q3.1-1.05 7.05.7Q7.3-3.45 10.25.3l6.5 5.95q1.65 1.85 2 5.5.3 3.6-.65 4.2-.45.25-1.2 0t-.65-.5q-3.05-11.2-9.4-13.2Q1.35.5.7.45q-1.6-.25-4.2.9-5.55 2.55-7.55 5.85-4 6.75-4.15 7.5-1.1 4.35-.65 4.5.15 1.3-.8 1.2-.65-.05-2.5-1.45-1.9-1.5-1.75-2.1l3.65-6.1q3.2-4.7 3.35-5.55.65-2.7 2.6-4.55l3.4-3.45q3-3 3.8-3.25" fill="#909" transform="translate(20.9 6.45)"/><path d="M-2.25 1.8q-2.1.45-3.4 1.15l-1.25.55-2.25 2.9q-1.8 2.6-3.75 4.2-1.8 1.45-1.75.65.2-2.65 3.65-6.3Q-6.75.45-.7-1.25q5.65-1.6 12.1 5.75 3.25 3.7 5.35 7.7-.6.3-1-.2L14 10.55Q9.15 3.5 2.8 1.45q-2.95-1-5.05.35" fill="#d69076" transform="translate(20.9 6.45)"/><path d="M-2.85-5.25 1.4-5q3.3.8 6.25 3.9L14 4.75q2.95 2.65 3.2 3.8.95 4.5.6 5.45l-4.05-5.5q-4.6-6.05-7.7-6.7Q.25.6-1.5.65q-4.15.1-6.95 3.3l-7.05 7.65-2.9 2.6q5-6.95 5.95-10 .45-1.55 4.3-5.45 3.95-3.95 5.3-4" fill="#ef59cf" transform="translate(20.9 6.45)"/><path d="M-4.25-4.7q1.5-1.35 4-.6-1.5.7-.45 2.8l1.3 2-4.5.75q2-2.75-.35-4.95" fill="#af05a7" transform="translate(20.9 6.45)"/><path d="M11.7 6.9Q5.3.05-.1 1.2q-4.65 1-6.6 2.2-2.85 1.7-5.2 5.9-4.6 8.35-4.15 9.55l-.85 1.05q-3.35-2.6-2.85-3.9.95-2.65 4.2-4.95.85-.55 2.9-2.9l2.35-3.05q.4-1 2.6-2.7Q-5.1.35-2.6-.1q6.4-1.25 10.45 2l4.1 3.35q1.95 1.9 4.15 5.6 2 2.5 1.85 3.1l-.35 1.6q-.7.5-1.5-.55-.8-.95-.75-1.95.1-2.05-3.65-6.15" fill="#f9a7ed" transform="translate(20.9 6.45)"/><path d="m-15.75 19.85-1.35-1.4q-1.7-1.95-1.35-2.5 2.6-3.65 4.2-4.7 1.85-1.25 2.9-2.65l-2.5 4.45q-2.9 5.7-1.9 6.8m27.55-13q.05-.45 3.95 5.15 1.5 1.55.5 3.45-4.95-4.25-4.45-8.6" fill="#4c0245" transform="translate(20.9 6.45)"/><path d="M20.8 17.35q-1.85-.1-2.05.65l-.1.3.7.9q2.5 2 2.3 3.1-2.55-1.7-3.8-1.4-1.1.3-2.3 2.25-1.35 2.3-1.05 4.6-2.4-3.7-2.4-5.3 0-8.45.95-8.4.7.05 4.4 1.35l1.65-.2q1.3.05 1.9.65l1.65 1.55-1.85-.05m-37.65 4.05 5.9-3.45q3.65 2.85 2.45 9.2-.5 2.1.05 5.8.15 1-.05.9-4.1-2.85-5.25-6.55l-.55-4.05q-.25-1.5-2.55-1.85" fill="#4c1b02" transform="translate(20.9 6.45)"/><path d="m-13.9 22.25.5-.6q.6-.5 1.3-.15 1.15.55-.75 4.9l.25-2.25q0-.6-.65-1.3l-.65-.6" fill="#a55032" transform="translate(20.9 6.45)"/><path d="M-10.6 24.55q-1.25 4.8 1 7.65-4.25-5.1-2.3-6.5 2.05-3.75.25-6.2l-.25-1.35q-.05-1.1 1.05.2 1.75 2.15.25 6.2" fill="#a55032" transform="translate(20.9 6.45)"/><path d="M-9.2 23.25q.35 2.15-.4 6.8-.8-2.1-.25-4.65l.65-2.15" fill="#a55032" transform="translate(20.9 6.45)"/><path d="M-10.6 16.45q.4.4-.3 2.1-.7 1.8-1.7 2.45-1.45.9-4.6.8-1.95.75-2.25 1.35-.4-1.15.85-2.3 3-2.75 3.2-4.15.1-.6 2.1-.75 2-.2 2.7.5" fill="#632405" transform="translate(20.9 6.45)"/><path d="M-11.45 16.9q0 3.5-3.55 4.1h-1.15q-1.15.05-1.75.45l5.2-4.25q.2-.45.75-.45l.5.15m-2.25.05q.25.35-3.45 3.25 2.25-1.9 1.75-3.15l1.7-.1" fill="#a55032" transform="translate(20.9 6.45)"/><path d="m7.4 12.3 3.75 1.6q2.75 1.2 3.65 1.05-1.75.75-2.4 7.65-.6 6.35.05 8.7-1.9-.1-3.45-3.95Q7.6 24 7.75 22l1.05-5.15q.5-2.9-1.4-4.55" fill="#632405" transform="translate(20.9 6.45)"/><path d="m9.65 14.3-.05-.05q.95.75 1.3 2.5.15.65-.55 3.25-.75 2.6-.45 5.6.2 1.9.85 3.15-2-2.95-2.2-5.1-.1-1.7.1-2.55l.5-1.85.8-2.45q.3-1.1-.3-2.5" fill="#b76744" transform="translate(20.9 6.45)"/><path d="m11.85 17.1.9-2.7v-.05q.5.7.3 2.4l-.85 4.05q-.65 3.3-.7 4.65-.1 2.15.1 2.9-1.05-2.45-.55-7.95.1-1.25.8-3.3" fill="#b76744" transform="translate(20.9 6.45)"/><path d="M2 9.25Q-2.05 4.3-2.8 4.2q-.35-.05-1.85.9L-6.5 6.45l-.85 3.7q-1.5 6.65-4.05 7l-4.75.6q-2.9.4-4.6 1.45l3.9-3.3q1.8-1.45 6.3-8.65Q-8 2.7-4.4 1.7.95.25 3.75 1.15q7.45 2.4 10.5 9.25l.3 1.85Q15 14.2 15.7 14.6q1.15.6 2.25.55.55 1.3-5.45-.55Q4.25 12.05 2 9.25" fill="#4c1b02" transform="translate(20.9 6.45)"/><path d="M12.7 13.75q-1.95-.1-8.15-3.6Q2.45 8.95.1 5.3l-1.75-3.25q2.85 4.6 14.35 11.7" fill="#a55032" transform="translate(20.9 6.45)"/><path d="M10.3 8.3q1.85 2.1 2.4 3.65-3.3-.95-8.45-5.8L-.2 1.45q6.7 2.7 10.5 6.85" fill="#b76744" transform="translate(20.9 6.45)"/><path d="M-8.8 9.55q-.7 4.15-1.3 5.1-.7 1.2-2.15 1.4l-2.8.35q2.5-1 3.6-2.95 1.1-2.1 1.5-3.55l1.1-2.5.55-1.15-.2.8-.3 2.5" fill="#a55032" transform="translate(20.9 6.45)"/><path d="M-11.1 9.05v.1l-.25 1.65q-.15.8-.9 1.7-2.7 3.35-4.1 3.55 2.45-1.7 3.55-3.6l.95-1.8.75-1.6m3.9-3.25-.1.05 1.45-2.2 3.1-1.75q0 1.25-1.5 2.05L-7.2 5.8" fill="#a55032" transform="translate(20.9 6.45)"/><path d="m3.4 5.25 1.05-1.5q2 .9 5 3.7L7.6 8.95l-4.2-3.7m-.8 1.3 4.3 3.3-.65 1.2Q4.8 10.5 3.2 9.15l-1.3-1.3.7-1.3" fill="#d69076" transform="translate(20.9 6.45)"/><path d="m15.15 16.15-1.45 9.4q-1.55-8.05 1.45-9.4m.7.15q.4.75 1.7.7.1.5-2.3 3.7l.6-4.4m1.5 3 .7-1.3 2.55 3-3.25-1.7m4.25-2.35q-3.75-.3-4.55-.8-.65-.4 1-.55l2.05.2 1.5 1.15" fill="#b76744" transform="translate(20.9 6.45)"/><path d="M-4.85 2.8q1.7 0 1.6.35-.55.8-2.05 1.4-.4-.9-.75-.75l1.2-1m-5.35 7.9 1.1.35-.9 3.4-1.7-.65q1.25-1.75 1.5-3.1m-2 .6.85-.5q-.6 2.35-2.3 3.55l-.4-.25q1.8-2.3 1.85-2.8m-1.35 6.75L-12 19q-.55 1.3-2.05 1.75.1-.15-.85-1.55l1.35-1.15m-1.85-.45 1 .2q0 .7-1.05 1.05l-.45-.05.5-1.2m2.25 5.4q1.25-.35 1.4-.6 0 1.8-.25 2.1l-.65-.05q.15-1.1-.5-1.45m2.05-2.25.9-1 .05 3.1-1 .6q.5-1.8.05-2.7m-.55 4.55 1.05-.75-.35 3.95-.95.35q-1.15-2.05.25-3.55m2-.85.5-.05-.1 2.85-.8.85q0-2.45.4-3.65m19.4-6.9 1.25.1-.75 2.55q-1.15.25-1.6.9l1.1-3.55m2.25-.9 1.1-.35-.55 3.2-1.3-.05.75-2.8M8.65 23.9l1.15-.3.05 2.3-.8.15-.4-2.15m2.25-1.15.95.05-.35 2.4-.7-.1.1-2.35m3.25-5.5.6.1-.4 2.35-.95-.2.75-2.25m1.55.05 1.6.25-1.1 1.75-.85.3.35-2.3m3.9-1.7q.25-.05.9 1.2l-2.1-.3q.35-.15-.1-.95l1.3.05m-1.35 2.9.85 1-.45.5-1-.55.6-.95" fill="#d69076" transform="translate(20.9 6.45)"/><path d="M1.35 1.35q5.8.55 8.25 3.75l.55 1.3Q3.4 1.7 1.35 1.35M11.3 6.8q3.15 2.6 2.55 6.4-1.6-5.1-2.55-6.4" fill="#b76744" transform="translate(20.9 6.45)"/><path d="m5.05 3.25 1-.7 2.35 1.4.8 2-4.15-2.7m7.1 5.6.8-.05.7 1.75-.75.25-.75-1.95" fill="#d69076" transform="translate(20.9 6.45)"/><path d="M-12.6 12.05h.75l-.55 1.1-.75-.25.55-.85m1.95 0 1.4.1-.4 1.5-1.75-.35.75-1.25m5.05-8.7.4-.25q1.6.4 1.45.55l-.9.55-.95-.85M2.8 8.8l1.05-1.25 1.25.9-.75 1.6L2.8 8.8m2.1-2.15q1.4-1.5 1-2.05l1.45 1.05-1.4 2.05L4.9 6.65m1.45-2.6.5-1.1.85.5v1.6l-1.35-1m-20.3 14.4 1.5 1.25-.95.75q-.4.15-1.15-1.65l.6-.35m-1.55-.55.9.15-.5.5-.55-.2.15-.45m2.75 5.4 1-.35-.1 1.05-.7-.05-.2-.65m1.85-1.85 1-.65-.1 1.5-.9.25v-1.1m-1.45 5.3 1.65-1.15-.3 1.95-1.15.65-.2-1.45m2.45-1.35.8-.15-.05 1.15-.95.5.2-1.5M12.55 9.45l.6-.15.35.6-.7.45-.25-.9m-3.2 9.05 1.4-.1-.3 1.2-1.5.3.4-1.4m2.35-.9 1.2-.05-.15 1.1-1.4.2.35-1.25m2.25.1.75.2-.1 1.1-1.1-.1.45-1.2m1.7.1 1.35.35-.4.7-1.2-.05.25-1m2.25 1.75.6-.75.35.35-.5.6-.45-.2m.8-4h.65l.6 1.15-1-.15-.25-1m-7.85 7.85h.95l-.2 1.15h-.85l.1-1.15M8.8 24.5l1.05-.2v.95l-.9.2-.15-.95" fill="#eaac98" transform="translate(20.9 6.45)"/><path d="M3.75 1.05q3.9 1.35 6.5 3.65Q4.2 1.1-4.15 2.9q-2.9.65-6.65 4.6l.25-.35Q-8 2.6-4.4 1.6.95.15 3.75 1.05" fill="#561e03" transform="translate(20.9 6.45)"/><path d="M-5.15-3.9q.7 2.05-1.65 4.05l-4.1 2.75v-.1l2.75-3.85 3-2.85" fill="#f9a7ed" transform="translate(20.9 6.45)"/><path d="M-7.2-.3Q-8.75.85-9.35.35q2.8-3.9 3.3-2.8.4.9-1.15 2.15" fill="#f9cdf5" transform="translate(20.9 6.45)"/><path d="M.8-5.1Q6.05-3.95 7-1.25L1.7-2.2q-.65-.35-1-1.3Q.35-4.45.8-5v-.1" fill="#f9a7ed" transform="translate(20.9 6.45)"/><path d="M1.35-4q.3-.75 1.65-.55 1.35.15 1.6.9.2.75-1.35.55-1.55-.2-1.8-.9h-.1" fill="#f9cdf5" transform="translate(20.9 6.45)"/></g></defs></svg>

<?xml version="1.0" encoding="UTF-8" standalone="no"?>
<svg xmlns:xlink="http://www.w3.org/1999/xlink" height="92.9px" width="100.7px" xmlns="http://www.w3.org/2000/svg">
  <g transform="matrix(1.0, 0.0, 0.0, 1.0, 38.65, 49.75)">
    <use height="40.3" transform="matrix(1.0, 0.0, 0.0, 1.0, -20.9, -6.45)" width="43.55" xlink:href="#shape0"/>
  </g>
  <defs>
    <g id="shape0" transform="matrix(1.0, 0.0, 0.0, 1.0, 20.9, 6.45)">
      <path d="M-4.1 -6.05 Q-1.0 -7.1 2.95 -5.35 7.3 -3.45 10.25 0.3 L16.75 6.25 Q18.4 8.1 18.75 11.75 19.05 15.35 18.1 15.95 17.65 16.2 16.9 15.95 16.15 15.7 16.25 15.45 13.2 4.25 6.85 2.25 1.35 0.5 0.7 0.45 -0.9 0.2 -3.5 1.35 -9.05 3.9 -11.05 7.2 -15.05 13.95 -15.2 14.7 -16.3 19.05 -15.85 19.2 -15.7 20.5 -16.65 20.4 -17.3 20.35 -19.15 18.95 -21.05 17.45 -20.9 16.85 L-17.25 10.75 Q-14.05 6.05 -13.9 5.2 -13.25 2.5 -11.3 0.65 L-7.9 -2.8 Q-4.9 -5.8 -4.1 -6.05" fill="#990099" fill-rule="evenodd" stroke="none"/>
      <path d="M-2.25 1.8 Q-4.35 2.25 -5.65 2.95 L-6.9 3.5 -9.15 6.4 Q-10.95 9.0 -12.9 10.6 -14.7 12.05 -14.65 11.25 -14.45 8.6 -11.0 4.95 -6.75 0.45 -0.7 -1.25 4.95 -2.85 11.4 4.5 14.65 8.2 16.75 12.2 16.15 12.5 15.75 12.0 L14.0 10.55 Q9.15 3.5 2.8 1.45 -0.15 0.45 -2.25 1.8" fill="#d69076" fill-rule="evenodd" stroke="none"/>
      <path d="M-2.85 -5.25 L1.4 -5.0 Q4.7 -4.2 7.65 -1.1 L14.0 4.75 Q16.95 7.4 17.2 8.55 18.15 13.05 17.8 14.0 L13.75 8.5 Q9.15 2.45 6.05 1.8 0.25 0.6 -1.5 0.65 -5.65 0.75 -8.45 3.95 L-15.5 11.6 -18.4 14.2 Q-13.4 7.25 -12.45 4.2 -12.0 2.65 -8.15 -1.25 -4.2 -5.2 -2.85 -5.25" fill="#ef59cf" fill-rule="evenodd" stroke="none"/>
      <path d="M-4.25 -4.7 Q-2.75 -6.05 -0.25 -5.3 -1.75 -4.6 -0.7 -2.5 L0.6 -0.5 -3.9 0.25 Q-1.9 -2.5 -4.25 -4.7" fill="#af05a7" fill-rule="evenodd" stroke="none"/>
      <path d="M11.7 6.9 Q5.3 0.05 -0.1 1.2 -4.75 2.2 -6.7 3.4 -9.55 5.1 -11.9 9.3 -16.5 17.65 -16.05 18.85 L-16.9 19.9 Q-20.25 17.3 -19.75 16.0 -18.8 13.35 -15.55 11.05 -14.7 10.5 -12.65 8.15 L-10.3 5.1 Q-9.9 4.1 -7.7 2.4 -5.1 0.35 -2.6 -0.1 3.8 -1.35 7.85 1.9 L11.95 5.25 Q13.9 7.15 16.1 10.85 18.1 13.35 17.95 13.95 L17.6 15.55 Q16.9 16.05 16.1 15.0 15.3 14.05 15.35 13.05 15.45 11.0 11.7 6.9" fill="#f9a7ed" fill-rule="evenodd" stroke="none"/>
      <path d="M-15.75 19.85 L-17.1 18.45 Q-18.8 16.5 -18.45 15.95 -15.85 12.3 -14.25 11.25 -12.4 10.0 -11.35 8.6 L-13.85 13.05 Q-16.75 18.75 -15.75 19.85" fill="#4c0245" fill-rule="evenodd" stroke="none"/>
      <path d="M11.8 6.85 Q11.85 6.4 15.75 12.0 17.25 13.55 16.25 15.45 11.3 11.2 11.8 6.85" fill="#4c0245" fill-rule="evenodd" stroke="none"/>
      <path d="M20.8 17.35 Q18.95 17.25 18.75 18.0 L18.65 18.3 19.35 19.2 Q21.85 21.2 21.65 22.3 19.1 20.6 17.85 20.9 16.75 21.2 15.55 23.15 14.2 25.45 14.5 27.75 12.1 24.05 12.1 22.45 12.1 14.0 13.05 14.05 13.75 14.1 17.45 15.4 L19.1 15.2 Q20.4 15.25 21.0 15.85 L22.65 17.4 20.8 17.35" fill="#4c1b02" fill-rule="evenodd" stroke="none"/>
      <path d="M-16.85 21.4 L-10.95 17.95 Q-7.3 20.8 -8.5 27.15 -9.0 29.25 -8.45 32.95 -8.3 33.95 -8.5 33.85 -12.6 31.0 -13.75 27.3 L-14.3 23.25 Q-14.55 21.75 -16.85 21.4" fill="#4c1b02" fill-rule="evenodd" stroke="none"/>
      <path d="M-13.9 22.25 L-13.4 21.65 Q-12.8 21.15 -12.1 21.5 -10.95 22.05 -12.85 26.4 L-12.6 24.15 Q-12.6 23.55 -13.25 22.85 L-13.9 22.25" fill="#a55032" fill-rule="evenodd" stroke="none"/>
      <path d="M-10.6 24.55 Q-11.85 29.35 -9.6 32.2 -13.85 27.1 -11.9 25.7 -9.85 21.95 -11.65 19.5 L-11.9 18.15 Q-11.95 17.05 -10.85 18.35 -9.1 20.5 -10.6 24.55" fill="#a55032" fill-rule="evenodd" stroke="none"/>
      <path d="M-9.2 23.25 Q-8.85 25.4 -9.6 30.05 -10.4 27.95 -9.85 25.4 L-9.2 23.25" fill="#a55032" fill-rule="evenodd" stroke="none"/>
      <path d="M-10.6 16.45 Q-10.2 16.85 -10.9 18.55 -11.6 20.35 -12.6 21.0 -14.05 21.9 -17.2 21.8 -19.15 22.55 -19.45 23.15 -19.85 22.0 -18.6 20.85 -15.6 18.1 -15.4 16.7 -15.3 16.1 -13.3 15.95 -11.3 15.75 -10.6 16.45" fill="#632405" fill-rule="evenodd" stroke="none"/>
      <path d="M-11.45 16.9 Q-11.45 20.4 -15.0 21.0 L-16.15 21.0 Q-17.3 21.05 -17.9 21.45 L-12.7 17.2 Q-12.5 16.75 -11.95 16.75 L-11.45 16.9" fill="#a55032" fill-rule="evenodd" stroke="none"/>
      <path d="M-13.7 16.95 Q-13.45 17.3 -17.15 20.2 -14.9 18.3 -15.4 17.05 L-13.7 16.95" fill="#a55032" fill-rule="evenodd" stroke="none"/>
      <path d="M7.4 12.3 L11.15 13.9 Q13.9 15.1 14.8 14.95 13.05 15.7 12.4 22.6 11.8 28.95 12.45 31.3 10.55 31.2 9.0 27.35 7.6 24.0 7.75 22.0 L8.8 16.85 Q9.3 13.95 7.4 12.3" fill="#632405" fill-rule="evenodd" stroke="none"/>
      <path d="M9.65 14.3 L9.6 14.25 Q10.55 15.0 10.9 16.75 11.05 17.4 10.35 20.0 9.6 22.6 9.9 25.6 10.1 27.5 10.75 28.75 8.75 25.8 8.55 23.65 8.45 21.95 8.65 21.1 L9.15 19.25 9.95 16.8 Q10.25 15.7 9.65 14.3" fill="#b76744" fill-rule="evenodd" stroke="none"/>
      <path d="M11.85 17.1 L12.75 14.4 12.75 14.35 Q13.25 15.05 13.05 16.75 L12.2 20.8 Q11.55 24.1 11.5 25.45 11.4 27.6 11.6 28.35 10.55 25.9 11.05 20.4 11.15 19.15 11.85 17.1" fill="#b76744" fill-rule="evenodd" stroke="none"/>
      <path d="M2.0 9.25 Q-2.05 4.3 -2.8 4.2 -3.15 4.15 -4.65 5.1 L-6.5 6.45 -7.35 10.15 Q-8.85 16.8 -11.4 17.15 L-16.15 17.75 Q-19.05 18.15 -20.75 19.2 L-16.85 15.9 Q-15.05 14.45 -10.55 7.25 -8.0 2.7 -4.4 1.7 0.95 0.25 3.75 1.15 11.2 3.55 14.25 10.4 L14.55 12.25 Q15.0 14.2 15.7 14.6 16.85 15.2 17.95 15.15 18.5 16.45 12.5 14.6 4.25 12.05 2.0 9.25" fill="#4c1b02" fill-rule="evenodd" stroke="none"/>
      <path d="M12.7 13.75 Q10.75 13.65 4.55 10.15 2.45 8.95 0.1 5.3 L-1.65 2.05 Q1.2 6.65 12.7 13.75" fill="#a55032" fill-rule="evenodd" stroke="none"/>
      <path d="M10.3 8.3 Q12.15 10.4 12.7 11.95 9.4 11.0 4.25 6.15 L-0.2 1.45 Q6.5 4.15 10.3 8.3" fill="#b76744" fill-rule="evenodd" stroke="none"/>
      <path d="M-8.8 9.55 Q-9.5 13.7 -10.1 14.65 -10.8 15.85 -12.25 16.05 L-15.05 16.4 Q-12.55 15.4 -11.45 13.45 -10.35 11.35 -9.95 9.9 L-8.85 7.4 -8.3 6.25 -8.5 7.05 -8.8 9.55" fill="#a55032" fill-rule="evenodd" stroke="none"/>
      <path d="M-11.1 9.05 L-11.1 9.15 -11.35 10.8 Q-11.5 11.6 -12.25 12.5 -14.95 15.85 -16.35 16.05 -13.9 14.35 -12.8 12.45 L-11.85 10.65 -11.1 9.05" fill="#a55032" fill-rule="evenodd" stroke="none"/>
      <path d="M-7.2 5.8 L-7.3 5.85 -5.85 3.65 -2.75 1.9 Q-2.75 3.15 -4.25 3.95 L-7.2 5.8" fill="#a55032" fill-rule="evenodd" stroke="none"/>
      <path d="M3.4 5.25 L4.45 3.75 Q6.45 4.65 9.45 7.45 L7.6 8.95 3.4 5.25" fill="#d69076" fill-rule="evenodd" stroke="none"/>
      <path d="M2.6 6.55 L6.9 9.85 6.25 11.05 Q4.8 10.5 3.2 9.15 L1.9 7.85 2.6 6.55" fill="#d69076" fill-rule="evenodd" stroke="none"/>
      <path d="M15.15 16.15 L13.7 25.55 Q12.15 17.5 15.15 16.15" fill="#b76744" fill-rule="evenodd" stroke="none"/>
      <path d="M15.85 16.3 Q16.25 17.05 17.55 17.0 17.65 17.5 15.25 20.7 L15.85 16.3" fill="#b76744" fill-rule="evenodd" stroke="none"/>
      <path d="M17.35 19.3 L18.05 18.0 20.6 21.0 17.35 19.3" fill="#b76744" fill-rule="evenodd" stroke="none"/>
      <path d="M21.6 16.95 Q17.85 16.65 17.05 16.15 16.4 15.75 18.05 15.6 L20.1 15.8 21.6 16.95" fill="#b76744" fill-rule="evenodd" stroke="none"/>
      <path d="M-4.85 2.8 Q-3.15 2.8 -3.25 3.15 -3.8 3.95 -5.3 4.55 -5.7 3.65 -6.05 3.8 L-4.85 2.8" fill="#d69076" fill-rule="evenodd" stroke="none"/>
      <path d="M-10.2 10.7 L-9.1 11.05 -10.0 14.45 -11.7 13.8 Q-10.45 12.05 -10.2 10.7" fill="#d69076" fill-rule="evenodd" stroke="none"/>
      <path d="M-12.2 11.3 L-11.35 10.8 Q-11.95 13.15 -13.65 14.35 L-14.05 14.1 Q-12.25 11.8 -12.2 11.3" fill="#d69076" fill-rule="evenodd" stroke="none"/>
      <path d="M-13.55 18.05 L-12.0 19.0 Q-12.55 20.3 -14.05 20.75 -13.95 20.6 -14.9 19.2 L-13.55 18.05" fill="#d69076" fill-rule="evenodd" stroke="none"/>
      <path d="M-15.4 17.6 L-14.4 17.8 Q-14.4 18.5 -15.45 18.85 L-15.9 18.8 -15.4 17.6" fill="#d69076" fill-rule="evenodd" stroke="none"/>
      <path d="M-13.15 23.0 Q-11.9 22.65 -11.75 22.4 -11.75 24.2 -12.0 24.5 L-12.65 24.45 Q-12.5 23.35 -13.15 23.0" fill="#d69076" fill-rule="evenodd" stroke="none"/>
      <path d="M-11.1 20.75 L-10.2 19.75 -10.15 22.85 -11.15 23.45 Q-10.65 21.65 -11.1 20.75" fill="#d69076" fill-rule="evenodd" stroke="none"/>
      <path d="M-11.65 25.3 L-10.6 24.55 -10.95 28.5 -11.9 28.85 Q-13.05 26.8 -11.65 25.3" fill="#d69076" fill-rule="evenodd" stroke="none"/>
      <path d="M-9.65 24.45 L-9.15 24.4 -9.25 27.25 -10.05 28.1 Q-10.05 25.65 -9.65 24.45" fill="#d69076" fill-rule="evenodd" stroke="none"/>
      <path d="M9.75 17.55 L11.0 17.65 10.25 20.2 Q9.1 20.45 8.65 21.1 L9.75 17.55" fill="#d69076" fill-rule="evenodd" stroke="none"/>
      <path d="M12.0 16.65 L13.1 16.3 12.55 19.5 11.25 19.45 12.0 16.65" fill="#d69076" fill-rule="evenodd" stroke="none"/>
      <path d="M8.65 23.9 L9.8 23.6 9.85 25.9 9.05 26.05 8.65 23.9" fill="#d69076" fill-rule="evenodd" stroke="none"/>
      <path d="M10.9 22.75 L11.85 22.8 11.5 25.2 10.8 25.1 10.9 22.75" fill="#d69076" fill-rule="evenodd" stroke="none"/>
      <path d="M14.15 17.25 L14.75 17.35 14.35 19.7 13.4 19.5 14.15 17.25" fill="#d69076" fill-rule="evenodd" stroke="none"/>
      <path d="M15.7 17.3 L17.3 17.55 16.2 19.3 15.35 19.6 15.7 17.3" fill="#d69076" fill-rule="evenodd" stroke="none"/>
      <path d="M19.6 15.6 Q19.85 15.55 20.5 16.8 L18.4 16.5 Q18.75 16.35 18.3 15.55 L19.6 15.6" fill="#d69076" fill-rule="evenodd" stroke="none"/>
      <path d="M18.25 18.5 L19.1 19.5 18.65 20.0 17.65 19.45 18.25 18.5" fill="#d69076" fill-rule="evenodd" stroke="none"/>
      <path d="M1.35 1.35 Q7.15 1.9 9.6 5.1 L10.15 6.4 Q3.4 1.7 1.35 1.35" fill="#b76744" fill-rule="evenodd" stroke="none"/>
      <path d="M11.3 6.8 Q14.45 9.4 13.85 13.2 12.25 8.1 11.3 6.8" fill="#b76744" fill-rule="evenodd" stroke="none"/>
      <path d="M5.05 3.25 L6.05 2.55 8.4 3.95 9.2 5.95 5.05 3.25" fill="#d69076" fill-rule="evenodd" stroke="none"/>
      <path d="M12.15 8.85 L12.95 8.8 13.65 10.55 12.9 10.8 12.15 8.85" fill="#d69076" fill-rule="evenodd" stroke="none"/>
      <path d="M-12.6 12.05 L-11.85 12.05 -12.4 13.15 -13.15 12.9 -12.6 12.05" fill="#eaac98" fill-rule="evenodd" stroke="none"/>
      <path d="M-10.65 12.05 L-9.25 12.15 -9.65 13.65 -11.4 13.3 -10.65 12.05" fill="#eaac98" fill-rule="evenodd" stroke="none"/>
      <path d="M-5.6 3.35 L-5.2 3.1 Q-3.6 3.5 -3.75 3.65 L-4.65 4.2 -5.6 3.35" fill="#eaac98" fill-rule="evenodd" stroke="none"/>
      <path d="M2.8 8.8 L3.85 7.55 5.1 8.45 4.35 10.05 2.8 8.8" fill="#eaac98" fill-rule="evenodd" stroke="none"/>
      <path d="M4.9 6.65 Q6.3 5.15 5.9 4.6 L7.35 5.65 5.95 7.7 4.9 6.65" fill="#eaac98" fill-rule="evenodd" stroke="none"/>
      <path d="M6.35 4.05 L6.85 2.95 7.7 3.45 7.7 5.05 6.35 4.05" fill="#eaac98" fill-rule="evenodd" stroke="none"/>
      <path d="M-13.95 18.45 L-12.45 19.7 -13.4 20.45 Q-13.8 20.6 -14.55 18.8 L-13.95 18.45" fill="#eaac98" fill-rule="evenodd" stroke="none"/>
      <path d="M-15.5 17.9 L-14.6 18.05 -15.1 18.55 -15.65 18.35 -15.5 17.9" fill="#eaac98" fill-rule="evenodd" stroke="none"/>
      <path d="M-12.75 23.3 L-11.75 22.95 -11.85 24.0 -12.55 23.95 -12.75 23.3" fill="#eaac98" fill-rule="evenodd" stroke="none"/>
      <path d="M-10.9 21.45 L-9.9 20.8 -10.0 22.3 -10.9 22.55 -10.9 21.45" fill="#eaac98" fill-rule="evenodd" stroke="none"/>
      <path d="M-12.35 26.75 L-10.7 25.6 -11.0 27.55 -12.15 28.2 -12.35 26.75" fill="#eaac98" fill-rule="evenodd" stroke="none"/>
      <path d="M-9.9 25.4 L-9.1 25.25 -9.15 26.4 -10.1 26.9 -9.9 25.4" fill="#eaac98" fill-rule="evenodd" stroke="none"/>
      <path d="M12.55 9.45 L13.15 9.3 13.5 9.9 12.8 10.35 12.55 9.45" fill="#eaac98" fill-rule="evenodd" stroke="none"/>
      <path d="M9.35 18.5 L10.75 18.4 10.45 19.6 8.95 19.9 9.35 18.5" fill="#eaac98" fill-rule="evenodd" stroke="none"/>
      <path d="M11.7 17.6 L12.9 17.55 12.75 18.65 11.35 18.85 11.7 17.6" fill="#eaac98" fill-rule="evenodd" stroke="none"/>
      <path d="M13.95 17.7 L14.7 17.9 14.6 19.0 13.5 18.9 13.95 17.7" fill="#eaac98" fill-rule="evenodd" stroke="none"/>
      <path d="M15.65 17.8 L17.0 18.15 16.6 18.85 15.4 18.8 15.65 17.8" fill="#eaac98" fill-rule="evenodd" stroke="none"/>
      <path d="M17.9 19.55 L18.5 18.8 18.85 19.15 18.35 19.75 17.9 19.55" fill="#eaac98" fill-rule="evenodd" stroke="none"/>
      <path d="M18.7 15.55 L19.35 15.55 19.95 16.7 18.95 16.55 18.7 15.55" fill="#eaac98" fill-rule="evenodd" stroke="none"/>
      <path d="M10.85 23.4 L11.8 23.4 11.6 24.55 10.75 24.55 10.85 23.4" fill="#eaac98" fill-rule="evenodd" stroke="none"/>
      <path d="M8.8 24.5 L9.85 24.3 9.85 25.25 8.95 25.45 8.8 24.5" fill="#eaac98" fill-rule="evenodd" stroke="none"/>
      <path d="M3.75 1.05 Q7.65 2.4 10.25 4.7 4.2 1.1 -4.15 2.9 -7.05 3.55 -10.8 7.5 L-10.55 7.15 Q-8.0 2.6 -4.4 1.6 0.95 0.15 3.75 1.05" fill="#561e03" fill-rule="evenodd" stroke="none"/>
      <path d="M-5.15 -3.9 Q-4.45 -1.85 -6.8 0.15 L-10.9 2.9 -10.9 2.8 -8.15 -1.05 -5.15 -3.9" fill="#f9a7ed" fill-rule="evenodd" stroke="none"/>
      <path d="M-7.2 -0.3 Q-8.75 0.85 -9.35 0.35 -6.55 -3.55 -6.05 -2.45 -5.65 -1.55 -7.2 -0.3" fill="#f9cdf5" fill-rule="evenodd" stroke="none"/>
      <path d="M0.8 -5.1 Q6.05 -3.95 7.0 -1.25 L1.7 -2.2 Q1.05 -2.55 0.7 -3.5 0.35 -4.45 0.8 -5.0 L0.8 -5.1" fill="#f9a7ed" fill-rule="evenodd" stroke="none"/>
      <path d="M1.35 -4.0 Q1.65 -4.75 3.0 -4.55 4.35 -4.4 4.6 -3.65 4.8 -2.9 3.25 -3.1 1.7 -3.3 1.45 -4.0 L1.35 -4.0" fill="#f9cdf5" fill-rule="evenodd" stroke="none"/>
    </g>
  </defs>
</svg>
